2 Export/Icons/Rounded/Chat, Question Answer 2.svg

<svg xmlns="http://www.w3.org/2000/svg" xmlns:xlink="http://www.w3.org/1999/xlink" width="24" height="24" viewBox="0 0 24 24">
  <defs>
    <path id="chat,-question-answer-2-a" d="M20 2H4c-1.1 0-1.99.9-1.99 2L2 22l4-4h14c1.1 0 2-.9 2-2V4c0-1.1-.9-2-2-2zM7 9h10c.55 0 1 .45 1 1s-.45 1-1 1H7c-.55 0-1-.45-1-1s.45-1 1-1zm6 5H7c-.55 0-1-.45-1-1s.45-1 1-1h6c.55 0 1 .45 1 1s-.45 1-1 1zm4-6H7c-.55 0-1-.45-1-1s.45-1 1-1h10c.55 0 1 .45 1 1s-.45 1-1 1z"/>
  </defs>
  <g fill="none" fill-rule="evenodd">
    <polygon points="0 0 24 0 24 24 0 24"/>
    <mask id="chat,-question-answer-2-b" fill="#fff">
      <use xlink:href="#chat,-question-answer-2-a"/>
    </mask>
    <use fill="#000" xlink:href="#chat,-question-answer-2-a"/>
    <g fill="#000" mask="url(#chat,-question-answer-2-b)">
      <rect width="24" height="24"/>
    </g>
  </g>
</svg>

<svg xmlns="http://www.w3.org/2000/svg" xmlns:xlink="http://www.w3.org/1999/xlink" width="24" height="24" viewBox="0 0 24 24">
  <defs>
    <path id="chat,-question-answer-2-a" d="M20,2 L4,2 C2.9,2 2.01,2.9 2.01,4 L2,22 L6,18 L20,18 C21.1,18 22,17.1 22,16 L22,4 C22,2.9 21.1,2 20,2 Z M7,9 L17,9 C17.55,9 18,9.45 18,10 C18,10.55 17.55,11 17,11 L7,11 C6.45,11 6,10.55 6,10 C6,9.45 6.45,9 7,9 Z M13,14 L7,14 C6.45,14 6,13.55 6,13 C6,12.45 6.45,12 7,12 L13,12 C13.55,12 14,12.45 14,13 C14,13.55 13.55,14 13,14 Z M17,8 L7,8 C6.45,8 6,7.55 6,7 C6,6.45 6.45,6 7,6 L17,6 C17.55,6 18,6.45 18,7 C18,7.55 17.55,8 17,8 Z"/>
  </defs>
  <g fill="none" fill-rule="evenodd">
    <polygon points="0 0 24 0 24 24 0 24"/>
    <mask id="chat,-question-answer-2-b" fill="#fff">
      <use xlink:href="#chat,-question-answer-2-a"/>
    </mask>
    <use fill="#000" xlink:href="#chat,-question-answer-2-a"/>
    <g fill="#000" mask="url(#chat,-question-answer-2-b)">
      <rect width="24" height="24"/>
    </g>
  </g>
</svg>
